picto/jump-on-train-prohibited-when-door-is-closing-left.svg

<svg class="color-immutable" width="24" height="24" viewBox="0 0 24 24" fill="none" xmlns="http://www.w3.org/2000/svg"><g clip-path="url(#a)"><path d="M0 22.5v-21C0 .675.675 0 1.5 0h21c.825 0 1.5.675 1.5 1.5v21c0 .825-.675 1.5-1.5 1.5h-21C.675 24 0 23.325 0 22.5Z" fill="#2D327D"/><path d="M16.306 10.595a.88.88 0 0 1-1.019 1.406l2.601 2.602h2.875c.081 0 .16.01.237.028V3h-6v6.29l1.306 1.305Zm.569-6.095c0-.207.168-.375.375-.375h2.25c.207 0 .375.168.375.375v8.625a.375.375 0 0 1-.375.375h-2.25a.375.375 0 0 1-.375-.375V4.5ZM20.341 21H21v-.659l-.659.659ZM21 19.939v-3.24a1.083 1.083 0 0 1-.237.028h-2.976L21 19.939ZM15 16.06V21h4.94L15 16.06Z" fill="#fff"/><path d="m11.936 10.875 2.25 2.25 3.151 3.151.025.001h3.402a.612.612 0 1 0 0-1.224h-3.061l-5.235-5.236h1.213l1.703 1.704a.429.429 0 1 0 .607-.606l-1.806-1.806a.612.612 0 0 0-.433-.18h-2.139c-.446 0-.846.192-1.125.495l1.448 1.451ZM12.641 13.701l-1.495 1.495a.61.61 0 0 0-.179.434v3.707a.613.613 0 1 0 1.225 0V15.97l1.359-1.359-.91-.91ZM10.967 12.028l-.366-.366-.522-.522v1.463H9.45v.919h1.058a.46.46 0 0 0 .46-.46v-1.034h-.001ZM10.112 9.051a1.193 1.193 0 0 0-.661-1.979V8.39l.661.661ZM5.186 4.125H6.75c.207 0 .375.168.375.375v1.564L9 7.939V3H4.061l1.125 1.125ZM7.125 8.185v4.94a.375.375 0 0 1-.375.375H4.5a.375.375 0 0 1-.375-.375v-7.94L3 4.06V21h6V10.06L7.125 8.185ZM3.658 3H3v.658L3.658 3Z" fill="#fff"/><path d="m14.185 13.125-2.249-2.25-8.077-8.077-1.06 1.061 7.802 7.803 1.463 1.463 8.076 8.076 1.061-1.061-7.016-7.015Z" fill="#EB0000"/></g><defs><clipPath id="a"><path fill="#fff" d="M0 0h24v24H0z"/></clipPath></defs></svg>

<svg class="color-immutable" width="24" height="24" viewBox="0 0 24 24" fill="none" xmlns="http://www.w3.org/2000/svg"><path d="M0 22.5V1.5C0 0.675 0.675 0 1.5 0H22.5C23.325 0 24 0.675 24 1.5V22.5C24 23.325 23.325 24 22.5 24H1.5C0.675 24 0 23.325 0 22.5Z" fill="#2D327D"/><path d="M16.306 10.595C16.473 10.76 16.565 10.982 16.565 11.218C16.565 11.702 16.171 12.096 15.686 12.096C15.545 12.096 15.41 12.063 15.287 12.001L17.888 14.603H20.763C20.844 14.603 20.923 14.613 21 14.631V3H15V9.29L16.306 10.595ZM16.875 4.5C16.875 4.293 17.043 4.125 17.25 4.125H19.5C19.707 4.125 19.875 4.293 19.875 4.5V13.125C19.875 13.332 19.707 13.5 19.5 13.5H17.25C17.043 13.5 16.875 13.332 16.875 13.125V4.5Z" fill="white"/><path d="M20.341 21H21V20.341L20.341 21Z" fill="white"/><path d="M21 19.939V16.699C20.924 16.716 20.845 16.727 20.763 16.727H17.787L21 19.939Z" fill="white"/><path d="M15 16.06V21H19.94L15 16.06Z" fill="white"/><path d="M11.936 10.875L14.186 13.125L17.337 16.276C17.345 16.276 17.354 16.277 17.362 16.277H20.764C21.102 16.277 21.376 16.003 21.376 15.666C21.376 15.327 21.103 15.053 20.764 15.053H17.703L12.468 9.817H13.681L15.384 11.521C15.465 11.601 15.574 11.646 15.688 11.646C15.925 11.646 16.117 11.454 16.117 11.218C16.117 11.103 16.072 10.995 15.991 10.915L14.185 9.109C14.071 8.994 13.914 8.929 13.752 8.929H11.613C11.167 8.929 10.767 9.121 10.488 9.424L11.936 10.875Z" fill="white"/><path d="M12.641 13.701L11.146 15.196C11.03 15.312 10.967 15.467 10.967 15.63V19.337C10.967 19.675 11.241 19.95 11.579 19.95C11.917 19.95 12.192 19.675 12.192 19.337V15.97L13.551 14.611L12.641 13.701Z" fill="white"/><path d="M10.967 12.028L10.601 11.662L10.079 11.14V12.603H9.45001V13.522H10.508C10.762 13.522 10.968 13.317 10.968 13.062V12.028H10.967Z" fill="white"/><path d="M10.112 9.051C10.308 8.839 10.428 8.556 10.428 8.245C10.428 7.659 10.006 7.174 9.45099 7.072V8.39L10.112 9.051Z" fill="white"/><path d="M5.18604 4.125H6.75004C6.95704 4.125 7.12504 4.293 7.12504 4.5V6.064L9.00004 7.939V3H4.06104L5.18604 4.125Z" fill="white"/><path d="M7.125 8.185V13.125C7.125 13.332 6.957 13.5 6.75 13.5H4.5C4.293 13.5 4.125 13.332 4.125 13.125V5.185L3 4.06V21H9V10.06L7.125 8.185Z" fill="white"/><path d="M3.658 3H3V3.658L3.658 3Z" fill="white"/><path d="M14.185 13.125L11.936 10.875L3.85901 2.798L2.79901 3.859L10.601 11.662L12.064 13.125L20.14 21.201L21.201 20.14L14.185 13.125Z" fill="#EB0000"/></svg>
